X:298
T: Des Pfalzgrafen Tchterlein (51a),
N: T0187
O: Luxemburg
S: Singendes Volk, Esch-Alzette 1937 posth.]
N: Boxhorn, 1900
R: Liebeslieder]
M: 3/4
L: 1/16
K: D
A2B2A2 | F6F2E2A2 | G6
A2c2c2 | B6F2B2B2 | A4z2
A2B2c2 | d6AAc2c2 | B6
F2B2B2 | A6DEF2E2 | D4z2

